static/img/nav.svg

<svg width="187" height="27" viewBox="0 0 187 27" fill="none" xmlns="http://www.w3.org/2000/svg">
<path d="M3.22 19H5.726V10.656H8.554V8.57H0.406V10.656H3.22V19ZM14.4305 13.792C14.6965 12.756 14.9765 11.538 15.2285 10.446H15.2845C15.5645 11.51 15.8305 12.756 16.1105 13.792L16.3345 14.674H14.2065L14.4305 13.792ZM10.5805 19H13.1285L13.7305 16.606H16.8105L17.4125 19H20.0445L16.8105 8.57H13.8145L10.5805 19ZM23.5187 19H25.7587V15.43C25.7587 14.394 25.5627 12.84 25.4367 11.818H25.4927L26.3327 14.31L27.7467 18.118H29.1187L30.5187 14.31L31.3867 11.818H31.4567C31.3167 12.84 31.1207 14.394 31.1207 15.43V19H33.4027V8.57H30.6867L29.0907 13.078C28.8947 13.68 28.7267 14.338 28.5167 14.968H28.4467C28.2507 14.338 28.0827 13.68 27.8727 13.078L26.2207 8.57H23.5187V19ZM40.192 19H42.698V10.656H45.526V8.57H37.378V10.656H40.192V19ZM51.4025 13.792C51.6685 12.756 51.9485 11.538 52.2005 10.446H52.2565C52.5365 11.51 52.8025 12.756 53.0825 13.792L53.3065 14.674H51.1785L51.4025 13.792ZM47.5525 19H50.1005L50.7025 16.606H53.7825L54.3845 19H57.0165L53.7825 8.57H50.7865L47.5525 19ZM60.4907 19H62.7307V15.43C62.7307 14.394 62.5347 12.84 62.4087 11.818H62.4647L63.3047 14.31L64.7187 18.118H66.0907L67.4907 14.31L68.3587 11.818H68.4287C68.2887 12.84 68.0927 14.394 68.0927 15.43V19H70.3747V8.57H67.6587L66.0627 13.078C65.8667 13.68 65.6987 14.338 65.4887 14.968H65.4187C65.2227 14.338 65.0547 13.68 64.8447 13.078L63.1927 8.57H60.4907V19Z" fill="black"/>
<path d="M116.54 18H118.836C121.972 18 123.386 15.914 123.386 12.89C123.386 9.852 121.972 7.836 118.822 7.836H116.54V18ZM117.058 17.538V8.298H118.752C121.636 8.298 122.84 10.202 122.84 12.89C122.84 15.564 121.636 17.538 118.752 17.538H117.058ZM134.756 18H135.274V7.836H134.756V18ZM148.586 11.91C149.02 10.678 149.384 9.642 149.762 8.368H149.818C150.196 9.642 150.546 10.678 150.98 11.91L151.68 13.94H147.872L148.586 11.91ZM145.926 18H146.444L147.718 14.388H151.834L153.094 18H153.654L150.014 7.836H149.552L145.926 18ZM164.311 18H164.829V13.212H167.083L169.953 18H170.555L167.685 13.184C169.365 13.016 170.401 12.092 170.401 10.454C170.401 8.578 169.127 7.836 167.125 7.836H164.311V18ZM164.829 12.764V8.298H166.943C168.805 8.298 169.841 8.872 169.841 10.454C169.841 12.022 168.805 12.764 166.943 12.764H164.829ZM183.219 18H183.737V13.828L186.789 7.836H186.271L184.647 11.098C184.311 11.854 183.919 12.568 183.513 13.31H183.457C183.051 12.568 182.715 11.854 182.337 11.098L180.727 7.836H180.167L183.219 13.828V18Z" fill="black"/>
<path fill-rule="evenodd" clip-rule="evenodd" d="M93.5 26C100.404 26 106 20.4036 106 13.5C106 7.31832 101.513 2.18469 95.6179 1.17867L90.061 16.5737H88.8029L93.6394 2.88909C93.1196 3.4767 92.5771 3.97768 92.0121 4.39202C91.4471 4.79883 90.8821 5.13407 90.3171 5.39774C89.7596 5.66141 89.2172 5.85352 88.6899 5.97405C88.1625 6.09459 87.6766 6.15486 87.2321 6.15486V5.78195C87.7746 5.78195 88.3772 5.68025 89.0402 5.47684C89.7031 5.2659 90.3774 4.94573 91.0629 4.51632C91.7485 4.08691 92.4189 3.54074 93.0744 2.87779C93.6 2.34615 94.0831 1.73398 94.5235 1.0413C94.1859 1.01394 93.8446 1 93.5 1C86.5964 1 81 6.59644 81 13.5C81 19.1659 84.7697 23.9513 89.9377 25.4851L94.5815 13.0179H95.7307L94.4805 16.4296C95.1431 15.3259 95.8006 14.5007 96.4529 13.954C97.1103 13.4021 97.7781 13.1262 98.4563 13.1262C98.772 13.1262 99.0438 13.1855 99.2716 13.3041C99.4994 13.4227 99.6857 13.5852 99.8307 13.7915C99.9756 13.9978 100.082 14.2428 100.149 14.5265C100.216 14.805 100.25 15.1067 100.25 15.4316C100.25 15.7772 100.214 16.1563 100.141 16.5689C100.074 16.9763 99.973 17.3838 99.8384 17.7912C99.5744 18.5958 99.2302 19.2972 98.8057 19.8955C98.3864 20.4938 97.9256 20.9941 97.4235 21.3964C96.9265 21.7935 96.4114 22.0926 95.8782 22.2938C95.345 22.4898 94.8351 22.5878 94.3485 22.5878C94.0845 22.5878 93.8567 22.5568 93.6652 22.4949C93.4788 22.433 93.3261 22.335 93.207 22.201C93.088 22.0669 92.9974 21.8941 92.9353 21.6826C92.8731 21.4712 92.8395 21.2184 92.8343 20.9244L91.0675 25.7635C91.8543 25.9186 92.6677 26 93.5 26ZM93.5 27C100.956 27 107 20.9558 107 13.5C107 6.04416 100.956 0 93.5 0C86.0442 0 80 6.04416 80 13.5C80 20.9558 86.0442 27 93.5 27ZM97.3381 13.7528C97.6332 13.5929 97.9179 13.513 98.1922 13.513C98.5339 13.513 98.785 13.629 98.9455 13.8611C99.1059 14.0881 99.1862 14.4001 99.1862 14.7972C99.1862 14.9777 99.1681 15.184 99.1318 15.4161C99.1008 15.6482 99.0542 15.8984 98.9921 16.1666C98.9299 16.4296 98.8549 16.7055 98.7669 16.9944C98.6789 17.2832 98.5779 17.5746 98.464 17.8686C98.1327 18.7299 97.7703 19.4442 97.3769 20.0116C96.9887 20.5789 96.6004 21.0302 96.2121 21.3654C95.8291 21.7007 95.4615 21.9379 95.1095 22.0772C94.7627 22.2113 94.465 22.2783 94.2165 22.2783C94.025 22.2783 93.8593 22.2474 93.7195 22.1855C93.5849 22.1184 93.4711 22.0282 93.3779 21.9147C93.2899 21.7961 93.2252 21.6594 93.1837 21.5047C93.1423 21.3448 93.1216 21.1746 93.1216 20.9941C93.1216 20.731 93.163 20.4216 93.2459 20.0657C93.3339 19.7098 93.4529 19.3333 93.6031 18.9362C93.7532 18.5339 93.9318 18.1213 94.1389 17.6984C94.3511 17.2754 94.5815 16.8628 94.83 16.4606C95.0784 16.0583 95.3399 15.6792 95.6142 15.3233C95.8938 14.9674 96.1785 14.6554 96.4684 14.3872C96.7583 14.119 97.0482 13.9075 97.3381 13.7528Z" fill="black"/>
</svg>

<svg width="187" height="27" fill="none" xmlns="http://www.w3.org/2000/svg"><path d="M3.22 19h2.506v-8.344h2.828V8.57H.406v2.086H3.22V19zm11.21-5.208c.267-1.036.546-2.254.799-3.346h.056c.28 1.064.546 2.31.825 3.346l.224.882h-2.127l.223-.882zM10.58 19h2.549l.601-2.394h3.08L17.414 19h2.631L16.811 8.57h-2.996L10.58 19zm12.939 0h2.24v-3.57c0-1.036-.196-2.59-.322-3.612h.056l.84 2.492 1.414 3.808h1.372l1.4-3.808.868-2.492h.07c-.14 1.022-.336 2.576-.336 3.612V19h2.282V8.57h-2.716l-1.596 4.508c-.196.602-.364 1.26-.574 1.89h-.07c-.196-.63-.364-1.288-.574-1.89L26.22 8.57h-2.702V19zm16.673 0h2.506v-8.344h2.828V8.57h-8.148v2.086h2.814V19zm11.21-5.208c.267-1.036.547-2.254.798-3.346h.056c.28 1.064.547 2.31.827 3.346l.224.882h-2.129l.225-.882zM47.553 19H50.1l.602-2.394h3.08L54.386 19h2.632L53.782 8.57h-2.995L47.552 19zm12.939 0h2.24v-3.57c0-1.036-.196-2.59-.322-3.612h.056l.84 2.492 1.414 3.808h1.372l1.4-3.808.868-2.492h.07c-.14 1.022-.336 2.576-.336 3.612V19h2.282V8.57h-2.716l-1.596 4.508c-.196.602-.364 1.26-.574 1.89h-.07c-.196-.63-.364-1.288-.574-1.89L63.193 8.57H60.49V19zM116.54 18h2.296c3.136 0 4.55-2.086 4.55-5.11 0-3.038-1.414-5.054-4.564-5.054h-2.282V18zm.518-.462v-9.24h1.694c2.884 0 4.088 1.904 4.088 4.592 0 2.674-1.204 4.648-4.088 4.648h-1.694zm17.698.462h.518V7.836h-.518V18zm13.83-6.09c.434-1.232.798-2.268 1.176-3.542h.056c.378 1.274.728 2.31 1.162 3.542l.7 2.03h-3.808l.714-2.03zm-2.66 6.09h.518l1.274-3.612h4.116l1.26 3.612h.56l-3.64-10.164h-.462L145.926 18zm18.385 0h.518v-4.788h2.254l2.87 4.788h.602l-2.87-4.816c1.68-.168 2.716-1.092 2.716-2.73 0-1.876-1.274-2.618-3.276-2.618h-2.814V18zm.518-5.236V8.298h2.114c1.862 0 2.898.574 2.898 2.156 0 1.568-1.036 2.31-2.898 2.31h-2.114zM183.219 18h.518v-4.172l3.052-5.992h-.518l-1.624 3.262c-.336.756-.728 1.47-1.134 2.212h-.056c-.406-.742-.742-1.456-1.12-2.212l-1.61-3.262h-.56l3.052 5.992V18z" fill="#000"/><path fill-rule="evenodd" clip-rule="evenodd" d="M93.5 26c6.904 0 12.5-5.596 12.5-12.5 0-6.182-4.487-11.315-10.382-12.321L90.06 16.574h-1.258l4.836-13.685a10.376 10.376 0 01-1.627 1.503c-.565.407-1.13.742-1.695 1.006-.557.263-1.1.456-1.627.576-.528.12-1.013.18-1.458.18v-.372c.543 0 1.145-.102 1.808-.305a8.929 8.929 0 002.023-.96c.686-.43 1.356-.976 2.011-1.64a10.972 10.972 0 001.45-1.836A12.668 12.668 0 0093.5 1C86.596 1 81 6.596 81 13.5c0 5.666 3.77 10.451 8.938 11.985l4.644-12.467h1.149l-1.25 3.412c.662-1.104 1.32-1.93 1.972-2.476.657-.552 1.325-.828 2.003-.828.316 0 .588.06.816.178.227.119.414.281.559.487.145.207.251.452.318.736.067.278.101.58.101.905 0 .345-.036.724-.109 1.137a8.066 8.066 0 01-.303 1.222c-.264.805-.608 1.506-1.032 2.104a7.194 7.194 0 01-1.382 1.501 5.705 5.705 0 01-1.546.898 4.43 4.43 0 01-1.53.294c-.263 0-.491-.031-.683-.093a1.036 1.036 0 01-.458-.294 1.335 1.335 0 01-.272-.518 2.89 2.89 0 01-.1-.759l-1.767 4.84c.786.155 1.6.236 2.432.236zm0 1c7.456 0 13.5-6.044 13.5-13.5S100.956 0 93.5 0 80 6.044 80 13.5 86.044 27 93.5 27zm3.838-13.247c.295-.16.58-.24.854-.24.342 0 .593.116.754.348.16.227.24.54.24.936 0 .18-.018.387-.054.62a8.096 8.096 0 01-.14.75 13.55 13.55 0 01-.528 1.702c-.331.86-.694 1.575-1.087 2.143-.388.567-.777 1.018-1.165 1.353-.383.336-.75.573-1.103.712-.346.134-.644.201-.892.201a1.22 1.22 0 01-.498-.092 1.032 1.032 0 01-.341-.271 1.204 1.204 0 01-.194-.41 2.03 2.03 0 01-.062-.51c0-.264.041-.573.124-.93.088-.355.207-.732.357-1.129.15-.402.329-.815.536-1.238.212-.423.443-.835.691-1.237.248-.403.51-.782.784-1.138.28-.356.564-.668.854-.936.29-.268.58-.48.87-.634z" fill="#000"/></svg>
